X: 87
T: Swinging on a Gate
B: NEFR #87
Z: 1997 by John Chambers <jc:trillian.mit.edu>
Z: Mary Lou Knack's version is identical except for two chords (C vs. Am).
M: C|
L: 1/8
K: G
|:"G"ge dB G2 AB |"Am"cA BG AG EG | "G"DG Bd g2 g2 | "D7"fg ag fd ef |
| "G"ge dB G2 AB |"C"cA  BG AG EG |"Am"cA BG AG EG | "D7"DG GF "G"G2 d2 :|
|:"G"gf ga ba gf |"Em"gf ed B2 AG |"Am"EA AB cB AG |  EA AB "D7"cd ef |
| "G"gf ga ba gf |"Em"gf ed ed Bd |"Am"cA BG AG EG | "D7"DG GF "G"G4 :|
